archdroid-icon-theme/Archdroid-Pink/mimetypes/scalable/application-vnd.ms-publisher.svg

<svg fill="#E91E63" height="48" viewBox="0 0 48 48" width="48" xmlns="http://www.w3.org/2000/svg"><path d="m12 4c-2.21 0-3.980469 1.79-3.980469 4l-.019531 32c0 2.21 1.770468 4 3.980469 4h24.019531c2.21 0 4-1.79 4-4v-24l-12-12zm14 3 11 11h-11zm-7.857422 13.408203c.947206 0 2.732422.751252 2.732422 3.146485 0 1.475245-.555494 2.329146-1.410156 3.570312-.489934.713126-1.632612 2.635952-2.013672 3.828125-.38106 1.186729-.088006 2.095703.396484 2.095703.479046 0 .937215-.592882 1.214844-.914062.250411-.272185 1.856811-2.177459 2.488281-2.966797.816557-1.017974 2.923377-3.097657 5.373047-3.097656 3.200902 0 4.223407 2.769981 4.386719 4.566406h2.689453v2.722656h-2.673828c-.430053 5.1933-3.336264 6.640625-5.105469 6.640625-1.92163 0-3.490234-1.512836-3.490234-3.369141s1.736949-5.149739 5.863281-5.857421c-.119761-.854663-.141366-1.955079-1.916016-1.955079-1.360927 0-3.124029 2.123869-4.441406 3.746094-1.208504 1.491577-2.167077 2.666812-3.332031 3.009766-.985312.288517-2.058444.104252-2.875-.5-.947206-.696795-1.462891-1.850551-1.462891-3.244141 0-2.640199 2.841096-6.413822 3.113282-6.871094.315733-.52804.865098-1.436964.326171-1.660156-.342954-.141536-1.105068.555535-1.867187 1.333985l-1.916016-1.851563c.239523-.293961.566622-.613913.953125-1.005859.277629-.27763 1.529658-1.367188 2.966797-1.367188zm10.441406 13.13086c-2.340796.61514-3.130859 2.35652-3.130859 3.009765 0 .506265.463271.789063.800781.789063.762119 0 1.992568-.864669 2.330078-3.798828z" fill="#008272"/></svg>

<svg fill="#E91E63" height="48" version="1.1" viewBox="0 0 48 48" width="48" xmlns="http://www.w3.org/2000/svg"><path d="M12 4C9.79 4 8.019531 5.79 8.019531 8L8 40C8 42.21 9.770468 44 11.980469 44L36 44C38.21 44 40 42.21 40 40L40 16 28 4 12 4zM26 7L37 18 26 18 26 7zM18.142578 20.408203C19.089784 20.408203 20.875 21.159455 20.875 23.554688 20.875 25.029933 20.319506 25.883834 19.464844 27.125 18.97491 27.838126 17.832232 29.760952 17.451172 30.953125 17.070112 32.139854 17.363166 33.048828 17.847656 33.048828 18.326702 33.048828 18.784871 32.455946 19.0625 32.134766 19.312911 31.862581 20.919311 29.957307 21.550781 29.167969 22.367338 28.149995 24.474158 26.070312 26.923828 26.070313 30.12473 26.070313 31.147235 28.840294 31.310547 30.636719L34 30.636719 34 33.359375 31.326172 33.359375C30.896119 38.552675 27.989908 40 26.220703 40 24.299073 40 22.730469 38.487164 22.730469 36.630859 22.730469 34.774554 24.467418 31.48112 28.59375 30.773438 28.473989 29.918775 28.452384 28.818359 26.677734 28.818359 25.316807 28.818359 23.553705 30.942228 22.236328 32.564453 21.027824 34.05603 20.069251 35.231265 18.904297 35.574219 17.918985 35.862736 16.845853 35.678471 16.029297 35.074219 15.082091 34.377424 14.566406 33.223668 14.566406 31.830078 14.566406 29.189879 17.407502 25.416256 17.679688 24.958984 17.995421 24.430944 18.544786 23.52202 18.005859 23.298828 17.662905 23.157292 16.900791 23.854363 16.138672 24.632813L14.222656 22.78125C14.462179 22.487289 14.789278 22.167337 15.175781 21.775391 15.45341 21.497761 16.705439 20.408203 18.142578 20.408203zM28.583984 33.539063C26.243188 34.154203 25.453125 35.895583 25.453125 36.548828 25.453125 37.055093 25.916396 37.337891 26.253906 37.337891 27.016025 37.337891 28.246474 36.473222 28.583984 33.539063z" fill="#008272"/></svg>
